X: 525
T: Xiu qilin
%%abc-version 2.0
%%abcx-abcm2ps-target-version 5.9.1 (29 Sep 2008)
%%abc-creator hum2abc beta
%%abcx-conversion-date 2013/10/02 07:52:30
%%abc-edited-by Helmut Schaffrath
%%humdrum-veritas 4022682304
%%humdrum-veritas-data 2639967456
%%continueall 1
%%barnumbers 0
L: 1/8
M: 2/4
K: G
B2e d [I:setbarnb 1]| 
B B A G | 
B2e d | 
B B A E | 
G4 | 
d> g e d | 
B> d A E | 
G4 | 
G G E D | 
d d B A/ A/ | 
G A d B | 
A4 | 
d d B d | 
F ED2 | 
d A/ B/ A/ G/ F/ E/ | 
D4 | 
B> g e d | 
B B B B | 
d d B d | 
F ED2 | 
d A/ B/ A/ G/ F/ E/ | 
D4 |]  



